X: 1
T:PIPE MAJOR GEORGE ALLAN  " "
M:C|
L:1/8
Q:80
C:PM D. MacLeod, MBE/JHP
S:Hornpipe
K:HP
|: a/2|
A3/4{d}A/4{e}A3/4{d}c/4{g}e3/4f/4{gef}e3/4c/4|
{g}B3/4c/4{g}d3/4e/4{g}f3/4g/4a3/4f/4|  !
{gef}e3/4c/4{g}A3/4{d}c/4{g}e3/4f/4{gef}e3/4d/4|
{g}c3/4d/4{gef}e3/4c/4{g}B3/4c/4{gde}d3/4B/4| |
{g}A3/4{d}A/4{e}A3/4{d}c/4{g}e3/4f/4{gef}e3/4c/4|  !
{g}B3/4c/4{g}d3/4e/4{g}f3/4g/4a3/4f/4|
{gef}e3/4c/4{g}A3/4{d}c/4a3/4f/4{gef}e3/4c/4|
{g}B/4d3/4{e}G3/4{d}B/4{g}A3/4{d}A/4{e}A3/4:| |:  !
{d}c/2|
{ag}aA/2{d}c/2a3/4A/4{d}c/4a3/4|
A3/4{d}c/4{e}B3/4c/4{g}d3/4e/4{g}f3/4g/4|  !
a3/4A/4{d}c/4a3/4A3/4{d}c/4a3/4d/4|
{g}c3/4d/4{gef}e3/4c/4{g}B3/4c/4{gde}d3/4B/4| |
{ag}aA/2{d}c/2a3/4A/4{d}c/4a3/4|  !
A3/4{d}c/4{e}B3/4c/4{g}d3/4e/4{g}f/4a3/4|
{ef}e3/4c/4{g}A3/4{d}c/4a3/4f/4{gef}e3/4c/4|
{g}B/4d3/4{e}G3/4{d}B/4{g}A3/4{d}A/4{e}A3/4:| |:  !
f/2|
{gef}e{g}A/2{d}c/2e/2{g}A/2{d}c/2e/2|
{g}A/2{d}c/2e/2{g}A/2{d}c/2e/2a/2f/2|
{gef}e{g}A/2{d}c/2e/2{g}A/2{d}c/2e/2|  !
{g}B/2d/2g/2{a}B/2d/2g/2a/2f/2| |
{gef}e{g}A/2{d}c/2e/2{g}A/2{d}c/2e/2|
{g}A/2{d}c/2e/2{g}A/2{d}c/2e/2a/2f/2|  !
{gef}e3/4c/4{g}A3/4{d}c/4a3/4f/4{gef}e3/4c/4|
{g}B/4d3/4{e}G3/4{d}B/4{g}A3/4{d}A/4{e}A3/4:| |:
{d}c/2|  !
{ag}aA/2{d}c/2a/2A/2{d}c/2a/2|
A/2{d}c/2a/2A/2{d}c/2a/2A/2{d}c/2|
{ag}aA/2{d}c/2a/2A/2{d}c/2a/2|  !
B/2d/2g/2{a}B/2d/2g/2{a}B/2g/2| |
{ag}aA/2{d}c/2a/2A/2{d}c/2a/2|
A/2{d}c/2a/2A/2{d}c/4e3/4{g}f/4a3/4|  !
{ef}e3/4c/4{g}A3/4{d}c/4a3/4f/4{gef}e3/4c/4|
{g}B/4d3/4{e}G3/4{d}B/4{g}A3/4{d}A/4{e}A3/4:|
